X:1
T:[ID 1-31]
T:[ID 1-31]
T:Bezeichnung standardisiert: March Marsch
T:Urheber unbekannt Datum in der hier transkribierten schriftlichen Quelle: vermutlich vor 1767
C:Urheber unbekannt
C:Datum in der hier transkribierten schriftlichen Quelle: vermutlich vor 1767
L:1/8
M:4/4
K:D
V:1 treble 
V:1
 ABc | d2 dd d2 d2 | dfec dfec | f2 ff f2 f2 | fage fage | d2 dd d2 d2 | d2 cB AGFE | %7
"^O)" DFAF DFAF | DGBG DGBG |"^O)" DFAF DFAF | DGBG DGBG | A2 GA BAGF | E2 EE EEEE | E6 :: %14
 A/B/c/d/ | e2 ee e2 f^g | a2 ^gf e2 cB | fgef decd | B2 E2 E2 E2 |"^O)" A2 AE B2 BE | %20
 c2 cE B2 BE |"^O)" A2 AE B2 BE | c2 cE B2 BE | ea^ga c2"^h" A x | A2 AA AAAA | A6 (3ABc | %26
 d2 dd d2 d2 | dfec dfec | f2 ff f2 f2 | fage fage | d2 dd d2 d2 | d2 cB AGFE |"^O)" DFAF DFAF | %33
 DGBG DGBG |"^O)" DFAF DFAF | DGBG DGBG |"^2)" Adcd F2 E2 | D2 DD DDDD | D6 :| %39

